X:2460
L:1/8
M:2/4
K:F
 A | cAGD | F>EEC | DEFE | FGA z | cB/A/ G2 | cB/A/ G2 | FE/F/AG/D/ | G>FF |]

